X:1
T:Title
%%score { ( 1 3 ) | ( 2 4 ) }
L:1/8
Q:1/4=84
M:4/4
K:Bb
V:1 treble nm="Grand Piano"
V:3 treble 
V:2 bass 
V:4 bass 
V:1
 [DF][DF][DG]D [DF][DF][DG]D | z4 z2 [=Ec]2 | FF[DB][DF] [EG][EG][=Ec][EG] | ABdc [DB]4 | %4
w: W.~J.~Kirkpatrick * * * * * * *||||
 z4 [Fc]2 c2 | [DB]2 [DB]2 [^FA]2 [FA]2 | [EG]2 [EG]2 z4 | [Fc]2 z2 z4 | z4 [Fc]2 c2 | %9
w: |||||
 [DB]2 [DB]2 [^FA]2 [FA]2 | [EG]2 [EG]2 z4 | [Fd]2 [Ec]2 [DB]4 |] %12
w: |||
V:2
 [B,,B,][B,,B,][B,,B,][B,,B,] [B,,B,][B,,B,][B,,B,][B,,F,B,] | %1
 [F,A,C][F,B,C][K:treble][F,CF][F,DF] [F,EF][G,=B,F][K:bass] .[C,C]2 | %2
 [F,A,E][F,A,E][B,,B,][B,,B,] [E,B,][E,G,][C,G,][C,C] | [F,CF][F,DF][F,B,F][F,A,E] [B,,B,]4 | %4
 z4 z2 F2 | G,G,G,G, D,D,D,D, | E,E,E,E, B,,[D,F,][C,F,][B,,F,] | [F,A,]F,B,B, [F,A,]4 | z4 z2 F2 | %9
 G,G,G,G, D,D,D,D, | E,E,E,E, B,,[D,F,][C,F,][C,F,] | [F,B,]2 [F,A,]2 [B,,F,B,]4 |] %12
V:3
 x8 | FGAB cG z =B, | x8 | x8 | [Fd]2 [Fd]2 z A, z A, | B,B,B,B, CCCC | %6
 B,B,B,B, [B,DF][FB][EA][DB] | z A, [Fd]2 [Fc]4 | [Fd]2 [Fd]2 z A, z A, | B,B,B,B, CCCC | %10
 B,B,B,B, [B,DF][FB][EA][DB] | x8 |] %12
V:4
 x8 | x2[K:treble] x4[K:bass] x2 | x8 | x8 | [B,,B,][B,,B,][B,,B,][B,,B,] [F,A,]F,[F,A,]F, | x8 | %6
 x8 | x8 | [B,,B,][B,,B,][B,,B,][B,,B,] [F,A,]F,[F,A,]F, | x8 | x8 | x8 |] %12

